src/assets/icons/Stocks.svg

<svg width="48" height="48" viewBox="0 0 48 48" fill="none" xmlns="http://www.w3.org/2000/svg">
<path d="M7 42C6.2 42 5.5 41.7 4.9 41.1C4.3 40.5 4 39.8 4 39V14.55C4 13.75 4.3 13.05 4.9 12.45C5.5 11.85 6.2 11.55 7 11.55H16.5V7C16.5 6.2 16.8 5.5 17.4 4.9C18 4.3 18.7 4 19.5 4H28.5C29.3 4 30 4.3 30.6 4.9C31.2 5.5 31.5 6.2 31.5 7V11.55H41C41.8 11.55 42.5 11.85 43.1 12.45C43.7 13.05 44 13.75 44 14.55V39C44 39.8 43.7 40.5 43.1 41.1C42.5 41.7 41.8 42 41 42H7ZM19.5 11.55H28.5V7H19.5V11.55ZM41 29.45H28.55V32.45H19.55V29.45H7V39H41V29.45ZM22.55 29.45H25.55V26.45H22.55V29.45ZM7 26.45H19.55V23.45H28.55V26.45H41V14.55H7V26.45Z" fill="#E0E0E0"/>
</svg>

<svg xmlns="http://www.w3.org/2000/svg" height="48" width="48"><path d="M7 42q-1.2 0-2.1-.9Q4 40.2 4 39V14.55q0-1.2.9-2.1.9-.9 2.1-.9h9.5V7q0-1.2.9-2.1.9-.9 2.1-.9h9q1.2 0 2.1.9.9.9.9 2.1v4.55H41q1.2 0 2.1.9.9.9.9 2.1V39q0 1.2-.9 2.1-.9.9-2.1.9Zm12.5-30.45h9V7h-9ZM41 29.45H28.55v3h-9v-3H7V39h34Zm-18.45 0h3v-3h-3ZM7 26.45h12.55v-3h9v3H41v-11.9H7Zm17 1.5Z"/></svg>
